app/dist/common/images/citigold-limited.svg

<svg height="18" viewBox="0 0 18 18" width="18" xmlns="http://www.w3.org/2000/svg"><path d="m0 0h18v18h-18z" fill="#262265"/><path d="m8.2 5h1.6l.52 1h-2.64l.51-1zm-.3 4h2.2l.7 1h-3.6zm-3.32 0h1.84l.58 1h-3zm7 0h1.84l.58 1h-3zm-5.5-2h1.84l.58 1h-3zm4 0h1.84l.58 1h-3zm-4 4h1.84l.58 1h-3zm-3.5 0h1.84l.58 1h-3zm7.5 0h1.84l.58 1h-3zm3.5 0h1.84l.58 1h-3z" fill="#ffd400"/></svg>

<!-- by TradingView --><svg width="18" height="18" viewBox="0 0 18 18" xmlns="http://www.w3.org/2000/svg"><path fill="#262265" d="M0 0h18v18H0z"/><path d="M8.2 5h1.6l.52 1H7.68l.51-1ZM7.9 9h2.2l.7 1H7.2l.7-1ZM4.58 9h1.84L7 10H4l.58-1ZM11.58 9h1.84l.58 1h-3l.58-1ZM6.08 7h1.84l.58 1h-3l.58-1ZM10.08 7h1.84l.58 1h-3l.58-1ZM6.08 11h1.84l.58 1h-3l.58-1ZM2.58 11h1.84L5 12H2l.58-1ZM10.08 11h1.84l.58 1h-3l.58-1ZM13.58 11h1.84l.58 1h-3l.58-1Z" fill="#FFD400"/></svg>
